assets/icons/qvision/loupe.svg

<svg xmlns="http://www.w3.org/2000/svg" height="24" viewBox="0 0 24 24" width="24"><path d="M0 0h24v24H0z" fill="none"/><path d="M13 7h-2v4H7v2h4v4h2v-4h4v-2h-4V7zm-1-5C6.49 2 2 6.49 2 12s4.49 10 10 10h8c1.1 0 2-.9 2-2v-8c0-5.51-4.49-10-10-10zm0 18c-4.41 0-8-3.59-8-8s3.59-8 8-8 8 3.59 8 8-3.59 8-8 8z"/></svg>

<svg width="24" height="24" viewBox="0 0 24 24" fill="none" xmlns="http://www.w3.org/2000/svg">
<g clip-path="url(#clip0_147_3572)">
<path d="M13 7H11V11H7V13H11V17H13V13H17V11H13V7ZM12 2C6.49 2 2 6.49 2 12C2 17.51 6.49 22 12 22H20C21.1 22 22 21.1 22 20V12C22 6.49 17.51 2 12 2ZM12 20C7.59 20 4 16.41 4 12C4 7.59 7.59 4 12 4C16.41 4 20 7.59 20 12C20 16.41 16.41 20 12 20Z" fill="#323232"/>
</g>
<defs>
<clipPath id="clip0_147_3572">
<rect width="24" height="24" fill="white"/>
</clipPath>
</defs>
</svg>
